!!!OTL: BAEURIN DU SOLLST HEIMEGEHN
!!!ARE: Europa, Mitteleuropa, Deutschland
!!!SCT: E0910D
!!!YEM: Copyright 1995, estate of Helmut Schaffrath.
**kern
*ICvox
*Ivox
*M6/8
*k[b-]
*F:
=1
{4c
8c
8e
8d
8c
=2
8a
8g
8f#
4g}
{8g
=3
8a
8g
8f#
4g
8g
=4
8a
8g
8f#
4g}
{8g
=5
8a
8g
8g
8ee
8dd
8cc
=6
8cc
8bn
8bn
8dd
8cc}
{8cc
=7
8dd
8cc
8f
8e
8g
8cc
=8
8dd
8cc
8e
8f
8a
8r}
=9
{8c
8c
8e
4f
8f
=10
8g
8f
8g
4a
8r}
=11
{8b-
8a
8g
4f
8f
=12
8e
8d
8e
4f}
{8cc
=13
8dd
8cc
8f
8e
8g
8cc
=14
8dd
8cc
8e
8f
8a
8r}
=15
{8c
8c
8e
4f
8f
=16
8g
8f
8g
4a
8r}
=17
{8b-
8a
8g
4f
8f
=18
8e
8d
8e
4f
8r}
==
!!!AGN: Ehestands - Lied
!! Modulierend
!!!ONB: ESAC (Essen Associative Code) Database: ERK2
!!!AMT: compound duple
!!!AIN: vox
!!!EED: Helmut Schaffrath
!!!EEV: 1.0
*-
